public/svg/infiniteIcon.svg

<svg xmlns="http://www.w3.org/2000/svg" width="56" height="56" viewBox="0 0 56 56" fill="none">
<path d="M22.932 21.4012C21.6269 20.0956 19.9638 19.2064 18.1533 18.8461C16.3427 18.4857 14.4659 18.6704 12.7603 19.3767C11.0547 20.083 9.59688 21.2793 8.57119 22.8142C7.54551 24.3491 6.99805 26.1538 6.99805 27.9998C6.99805 29.8459 7.54551 31.6505 8.57119 33.1855C9.59688 34.7204 11.0547 35.9167 12.7603 36.623C14.4659 37.3293 16.3427 37.514 18.1533 37.1536C19.9638 36.7933 21.6269 35.9041 22.932 34.5985C25.0031 32.7203 26.7197 30.4853 28 27.9998C29.2804 25.5144 30.997 23.2793 33.068 21.4012C34.3732 20.0956 36.0363 19.2064 37.8468 18.8461C39.6574 18.4857 41.5342 18.6704 43.2398 19.3767C44.9454 20.083 46.4032 21.2793 47.4289 22.8142C48.4546 24.3491 49.002 26.1538 49.002 27.9998C49.002 29.8459 48.4546 31.6505 47.4289 33.1855C46.4032 34.7204 44.9454 35.9167 43.2398 36.623C41.5342 37.3293 39.6574 37.514 37.8468 37.1536C36.0363 36.7933 34.3732 35.9041 33.068 34.5985C30.997 32.7203 29.2804 30.4853 28 27.9998C26.7197 25.5144 25.0031 23.2793 22.932 21.4012" stroke="#1B5BF7" stroke-width="3.5" stroke-linecap="round" stroke-linejoin="round"/>
</svg>

<svg xmlns="http://www.w3.org/2000/svg" width="56" height="56" fill="none" xmlns:v="https://vecta.io/nano"><path d="M22.932 21.401a9.33 9.33 0 0 0-4.779-2.555c-1.811-.36-3.687-.176-5.393.531s-3.163 1.903-4.189 3.438S6.998 26.154 6.998 28s.547 3.651 1.573 5.186 2.484 2.731 4.189 3.438 3.582.891 5.393.531a9.33 9.33 0 0 0 4.779-2.555A23.33 23.33 0 0 0 28 28c1.28-2.485 2.997-4.721 5.068-6.599 1.305-1.306 2.968-2.195 4.779-2.555s3.687-.176 5.393.531 3.163 1.903 4.189 3.438 1.573 3.34 1.573 5.186-.547 3.651-1.573 5.186-2.483 2.731-4.189 3.438-3.582.891-5.393.531-3.474-1.249-4.779-2.555C30.997 32.72 29.28 30.485 28 28a23.33 23.33 0 0 0-5.068-6.599" stroke="#1b5bf7" stroke-width="3.5" stroke-linecap="round" stroke-linejoin="round"/></svg>
